storage/app/icons/phosphoricons/light/mastodon-logo-light.svg

<svg xmlns="http://www.w3.org/2000/svg" fill="currentColor" viewBox="0 0 256 256"><path d="M184 34H72a38 38 0 0 0-38 38v120a38 38 0 0 0 38 38h88a6 6 0 0 0 0-12H72a26 26 0 0 1-26-26v-10h138a38 38 0 0 0 38-38V72a38 38 0 0 0-38-38m26 110a26 26 0 0 1-26 26H46V72a26 26 0 0 1 26-26h112a26 26 0 0 1 26 26Zm-28-40v32a6 6 0 0 1-12 0v-32a18 18 0 0 0-36 0v32a6 6 0 0 1-12 0v-32a18 18 0 0 0-36 0v32a6 6 0 0 1-12 0v-32a30 30 0 0 1 54-18 30 30 0 0 1 54 18"/></svg>

<svg xmlns="http://www.w3.org/2000/svg" viewBox="0 0 256 256" fill="currentColor"><path d="M184,34H72A38,38,0,0,0,34,72V192a38,38,0,0,0,38,38h88a6,6,0,0,0,0-12H72a26,26,0,0,1-26-26V182H184a38,38,0,0,0,38-38V72A38,38,0,0,0,184,34Zm26,110a26,26,0,0,1-26,26H46V72A26,26,0,0,1,72,46H184a26,26,0,0,1,26,26Zm-28-40v32a6,6,0,0,1-12,0V104a18,18,0,0,0-36,0v32a6,6,0,0,1-12,0V104a18,18,0,0,0-36,0v32a6,6,0,0,1-12,0V104a30,30,0,0,1,54-18,30,30,0,0,1,54,18Z"/></svg>
